storage/app/icons/phosphoricons/thin/warehouse-thin.svg

<svg xmlns="http://www.w3.org/2000/svg" fill="currentColor" viewBox="0 0 256 256"><path d="M240 188h-12V54.66l12.84-2.75a4 4 0 1 0-1.68-7.82l-224 48A4 4 0 0 0 16 100a4 4 0 0 0 .84-.09L28 97.52V188H16a4 4 0 0 0 0 8h224a4 4 0 0 0 0-8M36 95.81l184-39.43V188h-32v-60a4 4 0 0 0-4-4H72a4 4 0 0 0-4 4v60H36ZM180 156H76v-24h104Zm-104 8h104v24H76Z"/></svg>

<svg xmlns="http://www.w3.org/2000/svg" viewBox="0 0 256 256" fill="currentColor"><path d="M240,188H228V54.66l12.84-2.75a4,4,0,1,0-1.68-7.82l-224,48A4,4,0,0,0,16,100a4.07,4.07,0,0,0,.84-.09L28,97.52V188H16a4,4,0,0,0,0,8H240a4,4,0,0,0,0-8ZM36,95.81,220,56.38V188H188V128a4,4,0,0,0-4-4H72a4,4,0,0,0-4,4v60H36ZM180,156H76V132H180ZM76,164H180v24H76Z"/></svg>
